Obsidian-SemiLight/actions/24s/view-certificate-sign.svg

<svg viewBox="0 0 24 24" xmlns="http://www.w3.org/2000/svg"><path d="m4 6v12h8v-1h-7v-10h14v4h1v-5zm4.5 2c-.831 0-1.5.669-1.5 1.5v1.5h-1v3h5v-3h-1v-1.5c0-.831-.669-1.5-1.5-1.5zm0 1c.277 0 .5.223.5.5v1.5h-1v-1.5c0-.277.223-.5.5-.5zm3.5 0v1h6v-1zm0 2v1h5v-1zm0 2v1h4v-1z" fill="#4d4d4d"/><path d="m19 12-.996094.994141-.003906-.003907-5 4.998047.005859.00586-.005859.005859.007812.007812-.003906.992188h-.003906v.990234.009766h2l.005859-.005859.003907-.003907c.004-.00002.005765.001953.009765.001954l-.005859-.00586.986328-.986328 4-3.996094c-.004.002-.004766.00286-.009766.00586l.009766-.011719.998047-.998047.001953-.001953z" fill="#27ae60"/></svg>

<svg xmlns="http://www.w3.org/2000/svg" viewBox="0 0 24 24">
  <defs id="defs3051">
    <style type="text/css" id="current-color-scheme">
      .ColorScheme-Text {
        color:#4d4d4d;
      }
      .ColorScheme-PositiveText {
        color:#27ae60;
      }
      </style>
  </defs>
  <path 
     style="fill:currentColor;fill-opacity:1;stroke:none" 
     d="M 4 6 L 4 18 L 12 18 L 12 17 L 5 17 L 5 7 L 19 7 L 19 11 L 20 11 L 20 6 L 4 6 z M 8.5 8 C 7.669 8 7 8.669 7 9.5 L 7 11 L 6 11 L 6 14 L 11 14 L 11 11 L 10 11 L 10 9.5 C 10 8.669 9.331 8 8.5 8 z M 8.5 9 C 8.777 9 9 9.223 9 9.5 L 9 11 L 8 11 L 8 9.5 C 8 9.223 8.223 9 8.5 9 z M 12 9 L 12 10 L 18 10 L 18 9 L 12 9 z M 12 11 L 12 12 L 17 12 L 17 11 L 12 11 z M 12 13 L 12 14 L 16 14 L 16 13 L 12 13 z "
     class="ColorScheme-Text"
     />
  <path
     style="fill:currentColor;fill-opacity:1;stroke:none" 
     class="ColorScheme-PositiveText"
     d="M 19 12 L 18.003906 12.994141 L 18 12.990234 L 13 17.988281 L 13.005859 17.994141 L 13 18 L 13.007812 18.007812 L 13.003906 19 L 13 19 L 13 19.990234 L 13 20 L 15 20 L 15.005859 19.994141 L 15.009766 19.990234 C 15.013766 19.990214 15.015531 19.992187 15.019531 19.992188 L 15.013672 19.986328 L 16 19 L 20 15.003906 C 19.996 15.005906 19.995234 15.006766 19.990234 15.009766 L 20 14.998047 L 20.998047 14 L 21 13.998047 L 19 12 z "
      />
</svg>
